X:4455
T: Muirtown House
O:england
C: W.Morrison
R: reel, hornpipe
B: RSCDS 25-8
M: C|
L: 1/8
K: D
A>F \
| "D"D2D2 DEFG | AdcB AGFG | "Em"E2E2 EFGA | Bgfd "A7"ceAg |
| "D"fdcd Adcd | fdec dBAG | "D"FdBG "A7"EBAG | "D"F2D2 D2 ||
|| a>g \
| "D"fdcd Adcd | fdad "(G)"bd"(D)"ag | fdcd Adcd | fgab "A7"e2ag |
| "D"fdcd Adcd | fdec dBAG | "D"FdBG "A7"EBAG | "D"F2D2 D2 |]


